icons/amp-icon.svg

<?xml version="1.0" encoding="UTF-8"?>
<svg width="256px" height="256px" viewBox="0 0 256 256" version="1.1" xmlns="http://www.w3.org/2000/svg" xmlns:xlink="http://www.w3.org/1999/xlink" preserveAspectRatio="xMidYMid">
    <g>
        <path d="M127.962816,0 C198.911815,0.558586285 255.754376,55.4725719 255.999327,129.30333 C256.222426,196.981097 200.939466,257.457031 124.744539,255.972592 C55.244106,254.617978 -1.52329281,198.006026 0.0311827848,124.08815 C1.40287938,58.8018828 54.6684376,0.674744901 127.962816,0 Z M101.003768,147.357453 C105.554452,147.357453 110.106845,147.367703 114.65753,147.352329 C116.833796,147.345496 118.196951,147.837462 117.689611,150.565481 C116.574147,156.564732 115.660252,162.599855 114.679737,168.621313 C112.832587,179.971832 110.991701,191.32349 109.157078,202.676286 C108.981132,203.757586 108.415712,204.914048 109.809616,205.660538 C112.182326,206.929741 118.670127,205.31377 120.011075,203.0743 C137.018063,174.694017 154.01651,146.30861 171.006416,117.918077 C174.535588,112.012778 172.683883,108.820124 165.760488,108.768878 C157.794512,108.711938 149.828537,108.711938 141.862561,108.768878 C139.389066,108.782544 137.708182,108.456275 138.304349,105.219207 C140.080893,95.5899998 141.703697,85.9334607 143.331626,76.2769217 C144.604815,68.7175012 145.824481,61.1489702 146.990622,53.5713287 C147.16486,52.4404904 147.853271,51.0414624 146.011815,50.3701339 C142.079426,49.2279869 137.854573,50.6944931 135.475545,54.0274221 C122.392896,75.8151342 109.320497,97.6091098 96.2583467,119.409349 C92.3157866,125.985976 88.2553597,132.494275 84.4989951,139.176812 C81.6838569,144.181882 83.5321454,147.282292 89.0565125,147.34208 C93.0383616,147.384785 97.0219188,147.350621 101.005476,147.359162 L101.003768,147.357453 Z" fill="#1D5FE6"></path>
    </g>
</svg>

<svg xmlns="http://www.w3.org/2000/svg" viewBox="0 0 256 255.999">
  <path fill="#1d5fe6" d="M127.963 0c70.949.559 127.791 55.473 128.036 129.303.223 67.678-55.06 128.154-131.254 126.67C55.245 254.618-1.523 198.006.03 124.088 1.403 58.802 54.668.675 127.963 0zm-26.96 147.357c4.551 0 9.104.01 13.655-.005 2.176-.007 3.539.486 3.032 3.214-1.116 5.999-2.03 12.034-3.01 18.055-1.847 11.351-3.688 22.703-5.523 34.055-.176 1.082-.741 2.238.653 2.985 2.372 1.269 8.86-.347 10.201-2.587 17.007-28.38 34.006-56.765 50.995-85.156 3.53-5.905 1.678-9.098-5.246-9.149-7.965-.057-15.931-.057-23.897 0-2.474.014-4.155-.313-3.559-3.55 1.777-9.629 3.4-19.285 5.028-28.942 1.273-7.56 2.492-15.128 3.659-22.706.174-1.13.862-2.53-.98-3.2a9.641 9.641 0 0 0-10.535 3.657 80689.308 80689.308 0 0 0-39.218 65.381c-3.942 6.577-8.003 13.085-11.759 19.768-2.815 5.005-.967 8.105 4.558 8.165 3.981.043 7.965.01 11.948.017z"/>
</svg>
